X:1
T:James Gibb editions
T:Bringt her dem Herren - Schütz
T:#
%%score 1 2
L:1/8
Q:1/4=90
M:2/2
K:C
V:1 treble nm="Soprano"
V:2 bass nm="Continuo"
V:1
"^Bringt her dem Herren, SWV 283""^Heinrich Schütz\n(1585-1672)" z ECD E4 | EGEF G4 | GcAB c4- | %3
w: Bringt her dem Her-|ren, bringt her dem Her-|ren, bringt her dem Her\-|
[M:2/2] cBAG A3 G | G4 z GEF | G4 GBGA | B4 B4 | z2 c4 BB | B8 | A8 | z2 _B4 AA | A8 | G8 || %13
w: * ren, ihr Ge- wal- ti-|gen, bringt her dem|Her- ren, bringt her dem|Her- ren|Eh- re und|Stär-|ke,|Eh- re und|Stär-|ke,|
[M:3/2][Q:1/4=180] G2 G2 G2 G2 c2 c2 | B8 B4 | E4 E4 D4 | E8 z4 | C2 C2 C2 C2 F2 F2 | E8 E4 | %19
w: Al- le- lu- ja, Al- le-|lu- ja,|Al- le- lu-|ja,|Al- le- lu- ja, Al- le-|lu- ja,|
[M:3/2][Q:1/4=180][Q:1/4=180] G4 G4 ^F4 | G8 z4 | c2 c2 B2 B2 A2 A2 | G8 G4 | C4 C6 B,2 || %24
w: Al- le- lu-|ja,|Al- le- lu- ja, Al- le-|lu- ja,|Al- le- lu-|
[M:2/2][Q:1/4=90] C8 | z ECD E4 |[M:2/2][Q:1/4=90][Q:1/4=90] EGEF G4 | G4 G2 A2 | G4 F4 | (E6 ^F2 | %30
w: ja-|Bringt her dem Her-|ren, bringt her derm Her-|ren Eh- re|sei- nes|Na\- *|
 ^G2 A4 G2) | A8 | z2 ^CC C2 C2 | (D4- DE/F/ E>D) | E8 | z2 EE E2 E2 | (^F4- FG/A/ G>F | %37
w: |mens,|be- tet an- den|Her\- * * * * *|ren,|be- tet an den|Her\- * * * * *|
 GA/B/ A>G AB/c/ B>A | Bc/d/ c4 B2) | c4 z2 A2 | G6 GF | E8 || %42
w: ||ren un|hei- li- gen|Schmuck,|
[M:3/2][Q:1/4=180] G2 G2 G2 G2 c2 c2 | B8 B4 | E4 E4 D4 | E8 z4 | C2 C2 C2 C2 F2 F2 | E8 E4 | %48
w: Al- le- lu- ja, Al- le-|lu- ja,|Al- le- lu-|ja,|Al- le- lu- ja, Al- le-|lu- ja,|
 G4 G4 ^F4 | G8 z4 |[M:3/2][Q:1/4=180][Q:1/4=180] c2 c2 B2 B2 A2 A2 | G8 G4 | C4 C6 B,2 || %53
w: Al- le- lu-|ja,|Al- le- lu- ja, Al- le-|lu- ja,|Al- le- lu-|
[M:2/2][Q:1/4=90] C8 | z4 z2 GC | A4 A4 | z2 D3 D D2 | E4 z2 EE | %58
w: ja-|Al- le|Lan- de|be- ten dich|an und lob-|
[M:2/2][Q:1/4=90][Q:1/4=90] (FD E/D/E/F/ GE F/E/F/G/ | A2) G2 F4 | z2 A2 G2 F2 | z2 A2 GEFG | %62
w: sin\- * * * * * * * * * * *|* gen dir,|lob- sin- gen,|lob- sin- gen dei- nem|
 E4 D4 | z8 | z2 E2 D2 CE | DCFE D4 | C8 ||[M:3/2][Q:1/4=180] G2 G2 G2 G2 c2 c2 | B8 B4 | %69
w: Na- men,||lob- sin- gen, lob-|sin- gen dei- nem Na-|men,|Al- le- lu- ja, Al- le-|lu- ja,|
 E4 E4 D4 |[M:3/2][Q:1/4=180][Q:1/4=180] E8 z4 | C2 C2 C2 C2 F2 F2 | E8 E4 | G4 G4 ^F4 | G8 z4 | %75
w: Al- le- lu-|ja,|Al- le- lu- ja, Al- le-|lu- ja,|Al- le- lu-|ja,|
 c2 c2 B2 B2 A2 A2 | G8 G4 | C4 C6 B,2 ||[M:2/2] x8 |[M:2/2][Q:1/4=90][Q:1/4=90] C8 | z2 A3 G F2 | %81
w: Al- le- lu- ja, Al- le-|lu- ja,|Al- le- lu-||ja,|Al- le- lu|
 E4 z4 | z2 G3 F E2 | D4 z4 | z2 F4 E2 | D8 | C8 | z2 c4 _B2 | A8 | G16 |] %90
w: ja,|Al- le- lu-|ja,|Al- le-|lu-|ja,|Al- le-|lu-|ja|
V:2
 C,8 | C,4- C,E,C,D, | E,4 C,4 |[M:2/2] D,8 | G,,8 | G,,4 G,,4- | G,,G,E,F, G,2 E,2 | A,4 D,4 | %8
w: |||~~~~~~~~~~~~~~4|||||
 E,8 | A,,A,F,G, A,2 F,2 | _B,4 G,2 C,2 | D,8 | G,,8 ||[M:3/2] C4 B,4 A,4 | G,8 G,4 | A,4 G,4 F,4 | %16
w: 4|* * * * * 5||4|||||
 E,12 | F,4 E,4 D,4 | C,8 C,4 |[M:3/2] C,4 B,,4 A,,4 | G,,8 z4 | A,4 G,4 F,4 | E,8 E,4 | F,4 G,8 || %24
w: ||||||||
[M:2/2] C,8 | C,8 |[M:2/2] C,4- C,E,C,D, | E,2 C,2 C,2 F,2 | C,4 D,4 | A,,3 B,, C,2 D,2 | E,8 | %31
w: ||||||~~~~4|
 A,,8 | A,,8 | D,8 | A,,8 | A,,8 | D,8 | E,4 F,4 | G,8 | C,4 F,4 | G,8 | C,8 ||[M:3/2] C4 B,4 A,4 | %43
w: ||||||5~~~~~~~6 5~~~~~~~~6|3~~~~~~~~~~4~~~~~~~~~3|||||
 G,8 G,4 | A,4 G,4 F,4 | E,8 z4 | F,4 E,4 D,4 | C,8 C,4 | C,4 B,,4 A,,4 | G,,8 z4 | %50
w: |||||||
[M:3/2] A,4 G,4 F,4 | E,8 E,4 | F,4 G,8 ||[M:2/2] C,8 | C,8 | F,,8 | _B,,8 | A,,8 | %58
w: ||||||||
[M:2/2] D,4 C,4 | F,,2 C,2 F,,2 F,2 | E,2 F,2 C,2 F,,F, | E,2 F,2 C,2 D,G,, | A,,4 D,2 G,2 | %63
w: |||||
 D,E,C,G,, D,4 | G,,2 C,2 B,,2 C,2 | G,,A,, F,,2 G,,4 | C,8 ||[M:3/2] C4 B,4 A,4 | G,8 G,4 | %69
w: ||||||
 A,4 G,4 F,4 |[M:3/2] E,8 z4 | F,4 E,4 D,4 | C,8 C,4 | C,4 B,,4 A,,4 | G,,8 z4 | A,4 G,4 F,4 | %76
w: |||||||
 E,8 E,4 | F,4 G,8 ||[M:2/2] x8 |[M:2/2] C,8 | F,4 ^C,2 D,2 | A,,2 A,3 G, F,2 | E,2 C,2 B,,2 C,2 | %83
w: |||||||
 G,,2 G,3 F, E,2 | D,E,F,G, A,B,CC, | G,8 | C,2 C3 B, A,2 | G,2 F,2 E,F,G,E, | F,8 | C,16 |] %90
w: ||4~~~3|||||

